X: 21
M: 6/8
L: 1/8
K: C
(A2G) (A2B) |  c3   C3  | (E2D) (E2F) | G3- G2E |\
(F2E) (F2G) | (A2F) D2c | (d2G) (A2B) | c3- c2 |]

